X:1019
T:Letkis Jenka
C:anon.
O:Finland
R:Jenka
Z:Transcribed by Frank Nordberg - http://www.musicaviva.com
F:http://abc.musicaviva.com/tunes/finland/letkis-jenka.abc
M:C|
L:1/8
K:Am
.e2 z2 .e2 z2|.e>^d.e>f .e2 z2|.d2 z2 .d2 z2|.d>^c.d>e .d2 z2|
.e2 z2 .e2 z2|.e>^d.e>f .e>e.a>b|.c'2 .b2 .a>^g.^f>g|.a2 .a2 .a2 z2||
b4b3b|.a2.b2a4|g2g2 .g>f.e>f|g6 z2|
b4b3b|.a2.b2a4|^g4a4|^a4b4||
.e2 z2 .e2 z2|.e>^d.e>f .e2 z2|.d2 z2 .d2 z2|.d>^c.d>e .d2 z2|
.e2 z2 .e2 z2|.e>^d.e>f .e>e.a>b|.c'2 .b2 .a>^g.^f>g|.a2 .a2 .a2 z2|]
W:
W:
W:  From Musica Viva - http://www.musicaviva.com
W:  the Internet center for free sheet music downloads.
